!!!COM: Anon.
!!!OTL: Fox Society Funeral Song
!!!MPN: Masukatias [Old Dog]
!!!ODT: <1918//
!!!MLC: Fort Berthold Reservation, North Dakota, United States of America
!! Song was recorded during either the summer of 1912, 1915, or 1918.
!!!AGN: monody
!!!AST: Mandan and Hidatsa Men's Fox Society
!!!AMT: irregular
!!!RWG: Transcribed pitches, durations, and meters are only approximate.
!! Drum not recorded.
**kern
*ICvox
*Imale
*clefF4
*k[]
*M3/4
*MM66
16e
=1
8.g
16e
4e
8.e
16e
=2
8.g
16e
[4e
8.e]
16e
=3
8.g
16e
4e
8.e
16d
*M2/4
=4
8e;
16e
16e
8.c
16c
=5
(12c
12A
12A)
8.A
16A
*M3/4
=6
8.c
16A
8.A
16A
8.A
16c
=7
(12c
12A
12A)
(12A
12G
12G)
8.E
16E
*M2/4
=8
2E
=9
8E
[8E
8E]
8E
=10
4E
4E
==
*-
!!!CNT: Hidatsa
!!!TXO: Hidatsa
!!!OCY: United States
!!!OCL: Frances Densmore
!!!YOR: Frances Densmore, "Mandan and Hidatsa Music",
!!!YOR: Bulletin 80, page 123, No. 53
!!!PPR: Smithsonian Institution, Bureau of American Ethnology
!!!PPR: Government Printing Office
!!!PDT: 1923
!!!PPP: Washington, DC, United States of America
!!!YEC: Electronic Copyright 2000 David Huron
!!!YER: August 2000
!!!YEN: United States of America
!!!ENC: David Huron
!!!RDT: August 17, 2000
!!!EEV: Release 1.0
!!!AIN: tom, vox
